X:1
T: 3rd Birthday Reel
C:Bruce Shawyer
R:Reel
Q:232
K:A
M:4/4
L:1/16
|:"A"a4e2d2 c2e2c2A2|"Bm"d4B2A2 "E7"G2B2G2E2|"A"a4e2d2 c2e2c2A2|"Bm"d2B2 "E7"E2G2 "A"A4A4|
"A"a4e2d2 c2e2c2A2|"Bm"d4B2A2 "E7"G2B2G2E2|"A"a4e2d2 c2e2c2A2|"Bm"d2B2 "E7"E2G2 "A"A4A4|
"A"E2A2c2A2 "D"F2A2d2A2|"E7"G2B2e2G2 "F#m"A4e4|"Bm"f2e2d2c2 d2c2B2A2|"E7"B2A2G2F2 G8|
"A"E2A2c2A2 "D"F2A2d2A2|:E7:G2B2e2G2 :F#m"A4e4|"Bm"f2e2d2c2 "E7"B2E2F2G2|"A"A4A4 A8:|
